%
(Fusion CAM 2605.1.39)
( Posts processor: MPCNC v3.0 Beta 3.cps)
( Gcode generated: Saturday, December 27, 2025 11:18:10 PM GMT)
( Document: Untitled)
( Setup: Setup1)
( )
( Ranges Table:)
(   X: Min=-5.093 Max=155.093 Size=160.187)
(   Y: Min=1.211 Max=147.108 Size=145.898)
(   Z: Min=0 Max=15 Size=15)
( )
( Tools Table:)
(  T10 D=6 CR=0 - ZMIN=0 - flat end mill )
( )
( Feedrate and Scaling Properties:)
(   Feed: Travel speed X/Y = 2500)
(   Feed: Travel Speed Z = 300)
(   Feed: Enforce Feedrate = true)
(   Feed: Scale Feedrate = false)
(   Feed: Max XY Cut Speed = 900)
(   Feed: Max Z Cut Speed = 180)
(   Feed: Max Toolpath Speed = 1000)
( )
( G1->G0 Mapping Properties:)
(   Map: First G1 -> G0 Rapid = false)
(   Map: G1s -> G0 Rapids = false)
(   Map: SafeZ Mode = Retract : default = 15)
(   Map: Allow Rapid Z = false)
( )
( *** START begin ***)
( --- Start custom gcode R:\CNC Projects\G-CODE FILES\INC/lowrider_start_file.gcode)
G53 Z0;
G54;
G0 X0 Y0;
G0 Z15 F800;
(undefined)
( *** START end ***)
( )
( *** SECTION begin ***)
(   X Min: -5.093 - X Max: 155.093)
(   Y Min: 1.211 - Y Max: 147.108)
(   Z Min: 0 - Z Max: 15)
( Face1 - Milling - Tool: 10 -  flat end mill)
( COMMAND_START_SPINDLE)
( COMMAND_SPINDLE_CLOCKWISE)
( >>> Spindle Speed 10000)
M3 S10000
( COMMAND_COOLANT_ON)
G0 Z15 F300
X153.9 Y1.211 F2500
Z5 F300
( MOVEMENT_PLUNGE)
G1 Z0.6 F333
( MOVEMENT_LEAD_IN)
G18 G3 X153.3 Z0 I-0.6 F1200
G1 X153.01 F1200
( MOVEMENT_FINISH_CUTTING)
X-3.01 F1200
( MOVEMENT_LINK_TRANSITION)
G17 G2 Y5.379 J2.084 F1200
( MOVEMENT_FINISH_CUTTING)
G1 X153.01 F1200
( MOVEMENT_LINK_TRANSITION)
G3 Y9.547 J2.084 F1200
( MOVEMENT_FINISH_CUTTING)
G1 X-3.01 F1200
( MOVEMENT_LINK_TRANSITION)
G2 Y13.716 J2.084 F1200
( MOVEMENT_FINISH_CUTTING)
G1 X153.01 F1200
( MOVEMENT_LINK_TRANSITION)
G3 Y17.885 J2.084 F1200
( MOVEMENT_FINISH_CUTTING)
G1 X-3.01 F1200
( MOVEMENT_LINK_TRANSITION)
G2 Y22.053 J2.084 F1200
( MOVEMENT_FINISH_CUTTING)
G1 X153.01 F1200
( MOVEMENT_LINK_TRANSITION)
G3 Y26.222 J2.084 F1200
( MOVEMENT_FINISH_CUTTING)
G1 X-3.01 F1200
( MOVEMENT_LINK_TRANSITION)
G2 Y30.39 J2.084 F1200
( MOVEMENT_FINISH_CUTTING)
G1 X153.01 F1200
( MOVEMENT_LINK_TRANSITION)
G3 Y34.558 J2.084 F1200
( MOVEMENT_FINISH_CUTTING)
G1 X-3.01 F1200
( MOVEMENT_LINK_TRANSITION)
G2 Y38.727 J2.084 F1200
( MOVEMENT_FINISH_CUTTING)
G1 X153.01 F1200
( MOVEMENT_LINK_TRANSITION)
G3 Y42.896 J2.084 F1200
( MOVEMENT_FINISH_CUTTING)
G1 X-3.01 F1200
( MOVEMENT_LINK_TRANSITION)
G2 Y47.064 J2.084 F1200
( MOVEMENT_FINISH_CUTTING)
G1 X153.01 F1200
( MOVEMENT_LINK_TRANSITION)
G3 Y51.232 J2.084 F1200
( MOVEMENT_FINISH_CUTTING)
G1 X-3.01 F1200
( MOVEMENT_LINK_TRANSITION)
G2 Y55.401 J2.084 F1200
( MOVEMENT_FINISH_CUTTING)
G1 X153.01 F1200
( MOVEMENT_LINK_TRANSITION)
G3 Y59.569 J2.084 F1200
( MOVEMENT_FINISH_CUTTING)
G1 X-3.01 F1200
( MOVEMENT_LINK_TRANSITION)
G2 Y63.738 J2.084 F1200
( MOVEMENT_FINISH_CUTTING)
G1 X153.01 F1200
( MOVEMENT_LINK_TRANSITION)
G3 Y67.907 J2.084 F1200
( MOVEMENT_FINISH_CUTTING)
G1 X-3.01 F1200
( MOVEMENT_LINK_TRANSITION)
G2 Y72.075 J2.084 F1200
( MOVEMENT_FINISH_CUTTING)
G1 X153.01 F1200
( MOVEMENT_LINK_TRANSITION)
G3 Y76.243 J2.084 F1200
( MOVEMENT_FINISH_CUTTING)
G1 X-3.01 F1200
( MOVEMENT_LINK_TRANSITION)
G2 Y80.412 J2.084 F1200
( MOVEMENT_FINISH_CUTTING)
G1 X153.01 F1200
( MOVEMENT_LINK_TRANSITION)
G3 Y84.58 J2.084 F1200
( MOVEMENT_FINISH_CUTTING)
G1 X-3.01 F1200
( MOVEMENT_LINK_TRANSITION)
G2 Y88.749 J2.084 F1200
( MOVEMENT_FINISH_CUTTING)
G1 X153.01 F1200
( MOVEMENT_LINK_TRANSITION)
G3 Y92.918 J2.084 F1200
( MOVEMENT_FINISH_CUTTING)
G1 X-3.01 F1200
( MOVEMENT_LINK_TRANSITION)
G2 Y97.086 J2.084 F1200
( MOVEMENT_FINISH_CUTTING)
G1 X153.01 F1200
( MOVEMENT_LINK_TRANSITION)
G3 Y101.255 J2.084 F1200
( MOVEMENT_FINISH_CUTTING)
G1 X-3.01 F1200
( MOVEMENT_LINK_TRANSITION)
G2 Y105.423 J2.084 F1200
( MOVEMENT_FINISH_CUTTING)
G1 X153.01 F1200
( MOVEMENT_LINK_TRANSITION)
G3 Y109.591 J2.084 F1200
( MOVEMENT_FINISH_CUTTING)
G1 X-3.01 F1200
( MOVEMENT_LINK_TRANSITION)
G2 Y113.76 J2.084 F1200
( MOVEMENT_FINISH_CUTTING)
G1 X153.01 F1200
( MOVEMENT_LINK_TRANSITION)
G3 Y117.928 J2.084 F1200
( MOVEMENT_FINISH_CUTTING)
G1 X-3.01 F1200
( MOVEMENT_LINK_TRANSITION)
G2 Y122.097 J2.084 F1200
( MOVEMENT_FINISH_CUTTING)
G1 X153.01 F1200
( MOVEMENT_LINK_TRANSITION)
G3 Y126.266 J2.084 F1200
( MOVEMENT_FINISH_CUTTING)
G1 X-3.01 F1200
( MOVEMENT_LINK_TRANSITION)
G2 Y130.434 J2.084 F1200
( MOVEMENT_FINISH_CUTTING)
G1 X153.01 F1200
( MOVEMENT_LINK_TRANSITION)
G3 Y134.602 J2.084 F1200
( MOVEMENT_FINISH_CUTTING)
G1 X-3.01 F1200
( MOVEMENT_LINK_TRANSITION)
G2 Y138.771 J2.084 F1200
( MOVEMENT_FINISH_CUTTING)
G1 X153.01 F1200
( MOVEMENT_LINK_TRANSITION)
G3 Y142.939 J2.084 F1200
( MOVEMENT_FINISH_CUTTING)
G1 X-3.01 F1200
( MOVEMENT_LINK_TRANSITION)
G2 Y147.108 J2.084 F1200
( MOVEMENT_FINISH_CUTTING)
G1 X153.01 F1200
( MOVEMENT_LEAD_OUT)
G18 G2 X153.61 Z0.6 K0.6 F1200
( MOVEMENT_RAPID)
G0 Z15 F300
( *** SECTION end ***)
()
( *** STOP begin ***)
( --- Start custom gcode R:\CNC Projects\G-CODE FILES\INC/lowrider_stop_file.gcode)
M5;
G53 Z3 F500;
G54;
G0 X0 Y0 F800;(undefined)
%
